X:301
%%topmargin 3cm
T:Lady Caroline Montague
C:Nath. Gow
O:Scotland
B:Keith Norman MacDonald : "The Skye collection of the best reels & strathspeys extant" : 1887
Z:Ralph Palmer
R:Strathspey
M:C
L:1/8
K:C
(e/f/) | g<ce>d {/B}c2 G(e/f/) | {/f}g>ce>c (B<d)d(e/f/) | g>ca>c g>ce>c | (A/B/c) B/c/d G<cc :|
G | {/B,}C>EG>c (A/B/c) G>c | C<c e>c (B<d)d>e | {/B,}C>EG>c (A/B/c) A>c | (A/B/c) (B/c/d) G<cc>E |
{/B,}C>EG>c (A/B/c) GF | (E/G/).c/.e/ {/f}g>c Be | ((3cef) ((3geg) ((3afa) ((3geg) | ((3fdc) ((3Bgf) e<cc |]
